flaticon/baby/bib.svg

<svg xmlns="http://www.w3.org/2000/svg" width="32" height="32" viewBox="0 0 24 24">
    <path d="M 15.347656 15.675781 L 13.300781 15.378906 L 12.382812 13.523438 C 12.238281 13.230469 11.757812 13.230469 11.617188 13.523438 L 10.699219 15.378906 L 8.652344 15.675781 C 8.492188 15.699219 8.355469 15.8125 8.304688 15.96875 C 8.253906 16.125 8.296875 16.292969 8.414062 16.410156 L 9.894531 17.851562 L 9.546875 19.890625 C 9.519531 20.054688 9.585938 20.214844 9.714844 20.3125 C 9.847656 20.40625 10.023438 20.421875 10.167969 20.34375 L 12 19.382812 L 13.832031 20.34375 C 13.894531 20.378906 13.960938 20.394531 14.03125 20.394531 C 14.121094 20.394531 14.207031 20.367188 14.28125 20.3125 C 14.414062 20.214844 14.480469 20.054688 14.453125 19.890625 L 14.101562 17.851562 L 15.585938 16.410156 C 15.703125 16.292969 15.742188 16.125 15.695312 15.96875 C 15.644531 15.8125 15.507812 15.699219 15.347656 15.675781 Z M 13.34375 17.394531 C 13.242188 17.496094 13.195312 17.636719 13.21875 17.777344 L 13.460938 19.179688 L 12.199219 18.515625 C 12.136719 18.484375 12.070312 18.46875 12 18.46875 C 11.929688 18.46875 11.863281 18.484375 11.800781 18.515625 L 10.539062 19.179688 L 10.78125 17.777344 C 10.804688 17.636719 10.757812 17.496094 10.65625 17.394531 L 9.632812 16.402344 L 11.046875 16.195312 C 11.1875 16.175781 11.304688 16.085938 11.371094 15.960938 L 12 14.683594 L 12.632812 15.960938 C 12.695312 16.085938 12.8125 16.175781 12.953125 16.195312 L 14.367188 16.402344 Z M 13.34375 17.394531"/>
    <path d="M 20.914062 11.613281 C 20.273438 9.824219 19.90625 7.992188 19.820312 6.164062 C 19.664062 2.90625 18.644531 0.824219 16.875 0.140625 C 16.320312 -0.0703125 15.695312 -0.0429688 15.164062 0.222656 C 14.65625 0.480469 14.292969 0.917969 14.144531 1.457031 L 14.128906 1.503906 C 14.113281 1.574219 14.101562 1.644531 14.09375 1.714844 L 13.285156 1.714844 C 13.046875 1.714844 12.855469 1.90625 12.855469 2.144531 C 12.855469 2.378906 13.046875 2.570312 13.285156 2.570312 L 14.164062 2.570312 C 14.28125 2.945312 14.5 3.292969 14.8125 3.5625 C 15.09375 3.804688 15.390625 4.195312 15.617188 4.507812 C 15.902344 4.90625 16.089844 5.3125 16.175781 5.722656 C 16.191406 5.785156 16.203125 5.847656 16.214844 5.910156 C 16.425781 7.191406 16.09375 8.507812 15.296875 9.523438 C 14.558594 10.46875 13.507812 11.039062 12.34375 11.128906 C 11.132812 11.222656 9.976562 10.824219 9.089844 10.003906 C 8.214844 9.195312 7.714844 8.046875 7.714844 6.835938 C 7.71875 5.714844 8.179688 4.59375 8.976562 3.761719 C 9.050781 3.6875 9.121094 3.617188 9.199219 3.554688 C 9.515625 3.285156 9.738281 2.941406 9.851562 2.570312 L 11.144531 2.570312 C 11.378906 2.570312 11.570312 2.378906 11.570312 2.144531 C 11.570312 1.90625 11.378906 1.714844 11.144531 1.714844 L 9.910156 1.714844 C 9.902344 1.679688 9.902344 1.644531 9.894531 1.609375 C 9.882812 1.554688 9.871094 1.503906 9.855469 1.457031 C 9.707031 0.917969 9.34375 0.480469 8.835938 0.222656 C 8.304688 -0.0429688 7.679688 -0.0742188 7.125 0.140625 C 5.351562 0.828125 4.332031 2.910156 4.179688 6.171875 C 4.085938 8.152344 3.753906 9.867188 3.164062 11.414062 C 2.6875 12.660156 2.5 13.953125 2.597656 15.265625 C 2.957031 20.003906 6.949219 23.839844 11.683594 23.996094 C 11.792969 24 11.898438 24 12.003906 24 C 14.464844 24 16.78125 23.0625 18.554688 21.347656 C 20.410156 19.554688 21.429688 17.148438 21.429688 14.570312 C 21.429688 13.570312 21.253906 12.574219 20.914062 11.613281 Z M 17.960938 20.730469 C 16.277344 22.359375 14.054688 23.214844 11.710938 23.136719 C 7.40625 22.996094 3.777344 19.511719 3.453125 15.199219 C 3.363281 14.015625 3.535156 12.847656 3.964844 11.722656 C 4.585938 10.085938 4.9375 8.285156 5.035156 6.210938 C 5.128906 4.191406 5.625 1.640625 7.433594 0.941406 C 7.582031 0.882812 7.734375 0.855469 7.886719 0.855469 C 8.082031 0.855469 8.273438 0.902344 8.449219 0.988281 C 8.738281 1.136719 8.945312 1.382812 9.03125 1.6875 C 9.03125 1.695312 9.035156 1.707031 9.035156 1.714844 L 7.714844 1.714844 C 7.476562 1.714844 7.285156 1.90625 7.285156 2.144531 C 7.285156 2.378906 7.476562 2.570312 7.714844 2.570312 L 8.914062 2.570312 C 8.84375 2.691406 8.757812 2.804688 8.644531 2.898438 C 8.546875 2.980469 8.453125 3.070312 8.359375 3.167969 C 7.410156 4.160156 6.859375 5.496094 6.855469 6.855469 C 6.855469 8.285156 7.457031 9.660156 8.507812 10.632812 C 9.570312 11.617188 10.953125 12.09375 12.410156 11.984375 C 13.816406 11.875 15.082031 11.1875 15.972656 10.050781 C 16.914062 8.847656 17.3125 7.289062 17.058594 5.769531 C 17.046875 5.695312 17.03125 5.617188 17.015625 5.542969 C 16.902344 5.019531 16.667969 4.5 16.308594 4.003906 C 16.054688 3.652344 15.71875 3.210938 15.371094 2.914062 C 15.257812 2.8125 15.164062 2.699219 15.09375 2.570312 L 16.714844 2.570312 C 16.953125 2.570312 17.144531 2.378906 17.144531 2.144531 C 17.144531 1.90625 16.953125 1.714844 16.714844 1.714844 L 14.964844 1.714844 C 14.96875 1.703125 14.96875 1.695312 14.96875 1.6875 C 15.054688 1.382812 15.261719 1.136719 15.550781 0.988281 C 15.863281 0.832031 16.234375 0.8125 16.566406 0.941406 C 18.375 1.640625 18.867188 4.1875 18.964844 6.203125 C 19.054688 8.117188 19.441406 10.035156 20.105469 11.898438 C 20.414062 12.769531 20.570312 13.667969 20.570312 14.570312 C 20.570312 16.914062 19.644531 19.101562 17.960938 20.730469 Z M 17.960938 20.730469"/>
</svg>

<svg xmlns="http://www.w3.org/2000/svg" width="32" height="32" viewBox="0 0 24 24">
    <path d="M15.348 15.676l-2.047-.297-.918-1.856c-.145-.293-.625-.293-.766 0L10.7 15.38l-2.047.297a.432.432 0 0 0-.238.734l1.48 1.442-.347 2.039a.437.437 0 0 0 .168.422c.133.093.308.109.453.03l1.832-.96 1.832.96a.417.417 0 0 0 .45-.031.431.431 0 0 0 .171-.421l-.351-2.04 1.484-1.44a.44.44 0 0 0 .11-.442.433.433 0 0 0-.348-.293zm-2.004 1.719a.437.437 0 0 0-.125.382l.242 1.403-1.262-.664a.44.44 0 0 0-.398 0l-1.262.664.242-1.403a.437.437 0 0 0-.125-.382l-1.023-.993 1.414-.207c.14-.02.258-.11.324-.234L12 14.684l.633 1.277c.062.125.18.215.32.234l1.414.207zm0 0"/>
    <path d="M20.914 11.613a18.771 18.771 0 0 1-1.094-5.449c-.156-3.258-1.175-5.34-2.945-6.023a2.14 2.14 0 0 0-1.71.082 1.958 1.958 0 0 0-1.02 1.234l-.016.047a1.98 1.98 0 0 0-.035.21h-.809a.428.428 0 1 0 0 .856h.88c.116.375.335.723.648.993.28.242.578.632.804.945a3.236 3.236 0 0 1 .598 1.402 4.64 4.64 0 0 1-.918 3.613c-.738.946-1.79 1.516-2.953 1.606a4.256 4.256 0 0 1-3.254-1.125 4.31 4.31 0 0 1-1.375-3.168c.004-1.121.465-2.242 1.262-3.074.074-.075.144-.145.222-.207.317-.27.54-.614.653-.985h1.293a.427.427 0 0 0 0-.855H9.91c-.008-.035-.008-.07-.015-.106a1.44 1.44 0 0 0-.04-.152A1.958 1.958 0 0 0 8.835.223 2.123 2.123 0 0 0 7.126.14C5.352.828 4.332 2.91 4.18 6.17c-.094 1.981-.426 3.696-1.016 5.243a8.852 8.852 0 0 0-.566 3.852c.359 4.738 4.351 8.574 9.086 8.73a9.358 9.358 0 0 0 6.871-2.648 9.345 9.345 0 0 0 2.875-6.778c0-1-.176-1.996-.516-2.957zm-2.953 9.117a8.512 8.512 0 0 1-6.25 2.407c-4.305-.14-7.934-3.625-8.258-7.938a7.975 7.975 0 0 1 .512-3.476c.62-1.637.973-3.438 1.07-5.512.094-2.02.59-4.57 2.399-5.27.148-.058.3-.086.453-.086.195 0 .386.047.562.133.29.149.496.395.582.7 0 .007.004.019.004.027h-1.32a.428.428 0 1 0 0 .855h1.2c-.071.121-.157.235-.27.328a3.657 3.657 0 0 0-.286.27 5.404 5.404 0 0 0-1.504 3.687 5.16 5.16 0 0 0 1.653 3.778 5.108 5.108 0 0 0 3.902 1.351c1.406-.109 2.672-.796 3.563-1.933a5.491 5.491 0 0 0 1.043-4.508 4.108 4.108 0 0 0-.707-1.54c-.254-.35-.59-.792-.938-1.089a1.294 1.294 0 0 1-.277-.344h1.62a.428.428 0 1 0 0-.855h-1.75c.005-.012.005-.02.005-.028.086-.304.293-.55.582-.699a1.26 1.26 0 0 1 1.015-.047c1.809.7 2.301 3.247 2.399 5.262.09 1.914.476 3.832 1.14 5.695.31.872.465 1.77.465 2.672a8.5 8.5 0 0 1-2.61 6.16zm0 0"/>
</svg>
